X:1
T:Title
%%score { 1 | ( 2 3 ) }
L:1/8
Q:1/4=100
M:4/4
K:Db
V:1 treble nm="Grand Piano"
V:2 bass 
V:3 bass 
V:1
 D3 D D2 E2 | F2 [A,CE]2 [A,DF]2[K:bass] [F,D]2 | [A,CE]3[K:treble] [A,_C=D] [A,=CE]2 [A,DF]2 | %3
w: A.~F.~Atkin * * *|||
 [A,EG]2 [A,CA]2 [A,DF]4 | [A,DF]3 [A,EG] [DFA]2 [DFA]2 | [DGB]2 [DA]2 [Gc]2 [Fd]2 | %6
w: |||
 [GB]3 [AB] [GB]2 [Ad]2 | [Ae]2 [=Gf]2 [Ae]4 | [Af]3 [Fd] [FA]2 F2 | %9
w: |||
 G2 AB [A,DF]2[K:bass] [G,CE]2 | [F,D]3[K:treble] [A,CE] [A,DF]2 [B,DG]2 | [DF]2 [A,CE]2 [A,DF]4 | %12
w: |||
 [DA]2 [DGB]2 [Gc][Ad][Be][Af] | [Gg]2 [Be]2 c2 [ce]2 | [Bd][DAc][Ac]B BAAG | GEAC D4 | %16
w: ||||
 D,3 C, D,2[K:treble] A2 | A2 d2 A2 A2 | C,3 D, E,2[K:treble] A2 | A2 [Ac]2 [Ad]2 [GA]2 | %20
w: ||||
 [Fd]3 [Ec] [Ge]2 [Fd]2 | [Ac][Bd][GB][Ac] [FA]2 [DF]2 | [Af]3 [Ge] [Fd]2 [Ac]2 | %23
w: |||
 [GB][Ac][FA][GB] [EG][FA][DF]G | z4 z2 [A,EA]2 | [DFA]2 [Ad]2 [A,GA]2 [A,EA]2 | z4 z2 [A,GA]2 | %27
w: ||||
 [A,FA]2 [Gc]2 d2 A2 | A2 B2 [Gc][Ad][Be][Af] | [Gg]2 [Be]2 [Ac]2 [ce]2 | [Bd][DAc][Ac]B BAAG | %31
w: ||||
 GEAC D4 |] %32
w: |
V:2
 [D,F,]3 [D,F,] [D,F,]2 [D,G,D]2 | [D,A,D]2 A,,2 D,2 D,2 | A,,3 A,, A,,2 D,2 | C,2 A,,2 D,4 | %4
 D,3 D, D,2 D,2 | G,2 F,2 [E,A,]2 [D,D]2 | [G,D]3 [F,=D] [E,E]2 [F,D]2 | [E,C]2 [E,D]2 [A,C]4 | %8
 [D,D]3 [D,A,] [D,A,]2 [D,A,C]2 | [D,B,D]2 [D,D]-[D,G,D] D,2 A,,2 | B,,3 A,, D,2 G,2 | %11
 A,2 A,,2 D,4 | F,2 G,2 [E,A,][F,D][G,D][A,D] | D2- [G,D]2 [A,A]2 [F,=A,]2 | %14
 .[G,B,]2 z[K:treble] G GFFE | [A,C]3 [A,,G,A,] [D,F,A,]4 | z4 z2 [E,A,C]2 | %17
 [F,D]2 [A,F]2 [G,E]2 [E,C]2 | z4 z2 [G,A,C]2 | [F,D]2 [G,E]2 [F,D]2 [E,C]2 | %20
 [D,A,]3 [D,A,] [D,A,]2 [D,A,]2 | [A,,A,]2 [A,,A,]2 [D,A,]2 [D,A,]2 | %22
 [D,D]3 [D,A,] [D,A,]2 [D,A,]2 | [A,,A,]2 [A,,A,]2 [A,,A,]2 z E | D3 C D2 C,2 | %25
 D,2 [F,A,]2 E,2 C,2 | C3 D E2 C,2 | D,2 [E,A,]2 [F,A,F]2 [G,CE]2 | %28
 [F,D]2 [G,DG]2 [E,A,][F,D][G,D][A,D] | B,2 z2 z4 | .[G,B,]2 z[K:treble] G GF[K:bass][DF][B,E] | %31
 [A,C]3 [A,,G,A,] [D,F,A,]4 |] %32
V:3
 x8 | x8 | x8 | x8 | x8 | x8 | x8 | x8 | x8 | z2 .F,2 z4 | x8 | x8 | x8 | B,2 z2 z4 | %14
 z2 [G,D]2[K:treble] [G,D]2 [G,B,]2 | x8 | x8 | x8 | x8 | x8 | x8 | x8 | x8 | z4 z2 [A,,A,]2 | x8 | %25
 x8 | x8 | x8 | x8 | D2- [G,D]2 A,2 [F,A,]2 | z2 [G,D]2[K:treble] [G,D]2[K:bass] G,2 | x8 |] %32

